icon/fa/eye-slash.svg

<svg xmlns="http://www.w3.org/2000/svg" viewBox="0 0 640 512"><!--! Font Awesome Free 6.1.2 by @fontawesome - https://fontawesome.com License - https://fontawesome.com/license/free (Icons: CC BY 4.0, Fonts: SIL OFL 1.1, Code: MIT License) Copyright 2022 Fonticons, Inc.--><path d="M150.7 92.77C195 58.27 251.8 32 320 32c80.8 0 145.5 36.84 192.6 80.6 46.8 43.4 78.1 94.5 92.9 131.1 3.3 7.9 3.3 16.7 0 24.6-13.4 32.3-40.3 77.8-79.9 118.4l105.2 82.4c10.4 8.2 12.3 23.3 4.1 33.7-8.2 10.4-23.3 12.3-33.7 4.1L9.196 42.89C-1.236 34.71-3.065 19.63 5.112 9.196 13.29-1.236 28.37-3.065 38.81 5.112L150.7 92.77zm72.4 56.73 90.3 70.8c4.2-8.5 6.6-18.1 6.6-29.2 0-10.6-3.9-21.4-8.4-30.7 2.8-.3 5.6-1.3 8.4-1.3 53 0 96 43 96 96 0 14.6-2.9 27.6-8.9 39.4l39.5 30.2c11.1-20.4 17.4-43.8 17.4-69.6 0-78.6-64.5-144-144-144-37.3 0-71.4 15.1-96.9 38.4zM320 480c-80.8 0-145.5-36.8-192.6-80.6-46.78-44.3-78.06-95.4-92.94-131.1a31.98 31.98 0 0 1 0-24.6c9.54-22.9 25.83-52.5 48.63-82.2l94.31 74.3c-.9 6.6-1.4 13.3-1.4 19.3 0 80.4 64.5 144.9 144 144.9 18.7 0 36.6-3.6 53-10.1l73.2 57.6C409.9 467.1 367.8 480 320 480z"/></svg>

<svg xmlns="http://www.w3.org/2000/svg" viewBox="0 0 640 512" height="1em" width="1em">
<!--! Font Awesome Free 6.1.2 by @fontawesome - https://fontawesome.com License - https://fontawesome.com/license/free (Icons: CC BY 4.0, Fonts: SIL OFL 1.1, Code: MIT License) Copyright 2022 Fonticons, Inc.-->
  <path d="M150.7 92.77C195 58.27 251.8 32 320 32C400.8 32 465.5 68.84 512.6 112.6C559.4 156 590.7 207.1 605.5 243.7C608.8 251.6 608.8 260.4 605.5 268.3C592.1 300.6 565.2 346.1 525.6 386.7L630.8 469.1C641.2 477.3 643.1 492.4 634.9 502.8C626.7 513.2 611.6 515.1 601.2 506.9L9.196 42.89C-1.236 34.71-3.065 19.63 5.112 9.196C13.29-1.236 28.37-3.065 38.81 5.112L150.7 92.77zM223.1 149.5L313.4 220.3C317.6 211.8 320 202.2 320 191.1C320 180.5 316.1 169.7 311.6 160.4C314.4 160.1 317.2 159.1 320 159.1C373 159.1 416 202.1 416 255.1C416 269.7 413.1 282.7 407.1 294.5L446.6 324.7C457.7 304.3 464 280.9 464 255.1C464 176.5 399.5 111.1 320 111.1C282.7 111.1 248.6 126.2 223.1 149.5zM320 480C239.2 480 174.5 443.2 127.4 399.4C80.62 355.1 49.34 304 34.46 268.3C31.18 260.4 31.18 251.6 34.46 243.7C44 220.8 60.29 191.2 83.09 161.5L177.4 235.8C176.5 242.4 176 249.1 176 255.1C176 335.5 240.5 400 320 400C338.7 400 356.6 396.4 373 389.9L446.2 447.5C409.9 467.1 367.8 480 320 480H320z"/>
</svg>
